UI/POI/SVG/game-arcade_solid_24px.svg

<svg xmlns="http://www.w3.org/2000/svg" width="24" height="24" viewBox="0 0 24 24"><rect width="24" height="24" style="fill:none"/><path d="M4,22H2V20H4Zm4-2H6v2H8ZM6,18H4v2H6Zm14,0H18v2h2Zm2-8v4H20v2H18v2H16V16H14v2H10V16H8v2H6V16H4V14H2V10H4V8H6V6H8V4h2V2h4V4h2V6h2V8h2v2ZM10,12V10H8v2Zm6,0V10H14v2Zm6,8H20v2h2Zm-4,0H16v2h2Zm-8-2H8v2h2Zm6,0H14v2h2Z"/></svg>

<svg width="24" height="24" viewBox="0 0 24 24" fill="none" xmlns="http://www.w3.org/2000/svg">
<path d="M4 22H2V20H4V22ZM8 20H6V22H8V20ZM6 18H4V20H6V18ZM20 18H18V20H20V18ZM22 10V14H20V16H18V18H16V16H14V18H10V16H8V18H6V16H4V14H2V10H4V8H6V6H8V4H10V2H14V4H16V6H18V8H20V10H22ZM10 12V10H8V12H10ZM16 12V10H14V12H16ZM22 20H20V22H22V20ZM18 20H16V22H18V20ZM10 18H8V20H10V18ZM16 18H14V20H16V18Z" fill="#0F1621"/>
</svg>
